Modules/BetterCms.Module.Root/Scss/assets/icons/editor-paste.svg

<svg height="20" width="16" xmlns="http://www.w3.org/2000/svg" viewBox="0 0 16 20"><path fill="#303646" fill-rule="evenodd" d="m2 3c0-.55.45-1 1-1h8c.55 0 1 .45 1 1v2.03h2v-2.03c0-1.66-1.34-3-3-3h-8c-1.66 0-3 1.34-3 3v12c0 1.66 1.34 3 3 3h1.06v-2h-1.06c-.55 0-1-.45-1-1v-12m13 14.92c0 .55-.45.99-1 .99h-6c-.55 0-1-.44-1-.99v-8.98c0-.55.45-.99 1-.99h6c.55 0 1 .44 1 .99v8.98m-1-10.97h-6c-1.11 0-2 .89-2 1.99v8.98c0 1.1.89 1.99 2 1.99h6c1.11 0 2-.89 2-1.99v-8.98c0-1.1-.89-1.99-2-1.99m-.5 9h-5c-.27 0-.5.22-.5.5 0 .28.23.5.5.5h5c.28 0 .5-.22.5-.5 0-.28-.22-.5-.5-.5m0-3h-5c-.27 0-.5.22-.5.5 0 .28.23.5.5.5h5c.28 0 .5-.22.5-.5 0-.28-.22-.5-.5-.5m0-3h-5c-.27 0-.5.22-.5.5 0 .28.23.5.5.5h5c.28 0 .5-.22.5-.5 0-.28-.22-.5-.5-.5"/></svg>

<?xml version="1.0" encoding="utf-8"?>
<!-- Generator: Avocode 2.4.5 - http://avocode.com -->
<svg height="20" width="16" xmlns:xlink="http://www.w3.org/1999/xlink" xmlns="http://www.w3.org/2000/svg" viewBox="0 0 16 20">
    <path fill="#303646" fill-rule="evenodd" d="M 2 3 C 2 2.45 2.45 2 3 2 L 11 2 C 11.55 2 12 2.45 12 3 L 12 5.03 L 14 5.03 L 14 3 C 14 1.34 12.66 0 11 0 L 3 0 C 1.34 0 0 1.34 0 3 L 0 15 C 0 16.66 1.34 18 3 18 L 4.06 18 L 4.06 16 L 3 16 C 2.45 16 2 15.55 2 15 L 2 3 Z M 15 17.92 C 15 18.47 14.55 18.91 14 18.91 L 8 18.91 C 7.45 18.91 7 18.47 7 17.92 L 7 8.94 C 7 8.39 7.45 7.95 8 7.95 L 14 7.95 C 14.55 7.95 15 8.39 15 8.94 L 15 17.92 Z M 14 6.95 L 8 6.95 C 6.89 6.95 6 7.84 6 8.94 L 6 17.92 C 6 19.02 6.89 19.91 8 19.91 L 14 19.91 C 15.11 19.91 16 19.02 16 17.92 L 16 8.94 C 16 7.84 15.11 6.95 14 6.95 L 14 6.95 Z M 13.5 15.95 L 8.5 15.95 C 8.23 15.95 8 16.17 8 16.45 C 8 16.73 8.23 16.95 8.5 16.95 L 13.5 16.95 C 13.78 16.95 14 16.73 14 16.45 C 14 16.17 13.78 15.95 13.5 15.95 M 13.5 12.95 L 8.5 12.95 C 8.23 12.95 8 13.17 8 13.45 C 8 13.73 8.23 13.95 8.5 13.95 L 13.5 13.95 C 13.78 13.95 14 13.73 14 13.45 C 14 13.17 13.78 12.95 13.5 12.95 M 13.5 9.95 L 8.5 9.95 C 8.23 9.95 8 10.17 8 10.45 C 8 10.73 8.23 10.95 8.5 10.95 L 13.5 10.95 C 13.78 10.95 14 10.73 14 10.45 C 14 10.17 13.78 9.95 13.5 9.95" />
</svg>
